X: 1
T: Merry Girls Of Bristol, The
M: 2/4
L: 1/8
R: polka
K: Gmaj
GB dB|ef ge|dB AG|AF ED|
GB dB|ef ge|dc BA|G2 G2:|
|:df af|bg fe|fg af|e^c BA|
df af|ga bg|fg A^c|d2 D2|
GB dB|ef ge|db ca|Bg Af|
GB dB|ef ge|dc BA|G2 G2:|
